X: 4
T: Love an Opportunity
B: Twenty frou Country Dances, London 1996
B: Kate Van Winkle Keller & George A Fogg, "No Kissing Allowed in School!" A Virginia Dancing School in 1784
R: reel
Z: 2008 John Chambers <jc@trillian.mit.edu>
M: C|
L: 1/8
K: D
|: "D"dAFA dAFA | "G"decd "A7"e2e2 |  "D"defg {g}f2ed | "A7"cdec "D"d2d2 :|
|: "D"A2AF A2AF | "G"BAGF "A7"G2E2 | "Em"G2GE "G"G2GB | "A7"AGFE "D"D2D2 :|
%%sep 1 1 500
%%sep 1 1 500
